X:1
T:The Well-Tempered Clavier Part II Praeludium XI
T:BWV 880
T:J. S. Bach
%%score { ( 1 4 5 ) | ( 2 3 6 ) }
L:1/8
Q:1/4=184
M:3/2
K:F
V:1 treble nm="Harp"
V:4 treble 
V:5 treble 
V:2 bass 
V:3 bass 
V:6 bass 
V:1
"^Presto" z efg fedc dcBA | B12- | B4 A4 _A4- | A_AGF G8 | z4 z4 z ABc- | c4- cA B2- B4- | %6
 B8- BGAB- | B4- BG A2- A4- | Acd_e d8 | e8 f4- | fefg fedc dc=BA | =B8 c4- | c6 c2 d2 f2 | %13
 =B2 c2 d4- dGAB | c8- c2 c=B | c12- | c=Bcd cBAG AGFE | F12- | F4 E4 _E4- | E_EDC D8 | %20
 z4 z4 z EFG- | G4- GE F2- F4- | F8- FDEF- | F4- FD E4- E2- | EGAB A8 | =B8 c4- | ccd_e d8 | %27
 e8 f4- | ffga gfed ed^c=B | ^c8 d4- | d2 f2 e2 g2 ^c2 d2- | dd^c=B [Ac]8 | z ^cde d=cBA BAGF | %33
 G12- | G4 F8- | F12- | F4 z4 z ^CDE | ^CEFG A8- | AGBA GF E2- EEFG- | GGFE F8- | FFGA B8- | %41
 BBAG A8- | AABc d8- | ddcB c8- | ccde f8- | ffed e8- | e4 d8- | d12- | ddef edc=B cBA^G | A12- | %50
 Agab agfe fed^c | defg fed^c d=cBA | Bcd_e dcBA BA^G_G | ^G2 E2 z2 =B2- [Bd]4- | %54
 [Bd]2 c2- cc=BA B4 | A12 | z efg fedc dcBA | B12- | B4 A4 _A4- | A_AGF G8 | z4 z4 z ABc- | %61
 c4- cA B4- B2- | BGAB cd _e2- e4- | e4 d2 c2 d4- | d4 c4- c2 d_e |{B} A8 B4- | BABc BAGF GFED | %67
 E8 F4- | F4- F2 F2 G2 AB | E2 F2 G4- GCDE | F8- F2 FE | !fermata!F12 |] %72
V:2
 z4 z4 A,4 | D4 B,4 G,B,CD | CB,A,G, A,4 F,4- | F,-F,E,D, E,2 G,2 C2 G,2- | G,2 G,2 ^F,2 B,2 A,4- | %5
 A,2 D,4 G,4 G,2- | G,B,C_D C8- | C8- C_EDC | D4 z2 D6 | C2 z2 z8 | z2 A,6- A,4 | G,4 z4 z =B,CD | %12
 C=B,A,G, A,8- | A,4 G,8 | A,2 z2 z4 z2 G,2- | G,4 z4 z DC=B, | C2 G,2 A,2 E,2 F,2 A,2 | %17
 D,2 E,2 F,4- F,F,G,A, | G,F,E,D, E,4 C,4- | C,-C,=B,,A,, B,,2 D,2 G,2 D,2- | D,4 ^C,2 F,2 E,4- | %21
 E,2 A,,4 D,4 D,2- | D,F,G,_A, G,8- | G,8- G,B,A,G, | A,4 z2 A,6 | G,2 z2 z8 | %26
 A,,E,F,G, F,E,D,C, D,C,B,,A,, | G,,B,CD CB,A,G, A,G,F,E, | D,A,B,C B,A,G,F, G,4- | G,8 z ^CDE | %30
 DCB,A, B,4 A,4- | A,4- A,G,A,B, A,G,F,E, | z4 A,4 D4- | D2 z2 z[I:staff -1] D^C=B, C4- | C4 A,8- | %35
 A,C=B,A, ^G,2 A,2 B,4- | B,[I:staff +1]D,E,F, E,8- | E,4- E,F,E,D, ^C,4- | %38
 C,2 D,2 E,2 F,2 G,2 A,2 | B,2 A,G, A,4- A,CB,A, | B,4- B,2 A,2 G,4- | G,2 F,E, F,2 A,2- A,ED^C | %42
 D4- D2 C2 B,4- | B,2 A,G, A,2 C2- CGFE | F4- F2 E2 D4- | D2 C=B, C4 z[I:staff -1] =BA^G | %46
 A4 =B8- | B12- | B[I:staff +1] z E,2 ^F,2 ^G,2 A,2 =B,2 | C2 A,4 ^C2 D2 A,2- | %50
 A,2 A,2 =B,2 ^C2 D2 E2 | F z z2 z4 z4 | z2 F,2 B,2 C2 D2 C2 | =B,2 z2 z4 z4 | %54
 z4 z A,,=B,,C, D,2 E,2 | F,2 D,2 F,4 E,4 | z4 z4 A,4 | D4 B,4 G,B,CD | CB,A,G, A,4 F,4- | %59
 F,F,E,D, E,2 G,2 C2 G,2- | G,2 G,2 ^F,2 B,2 A,4- | A,2 D,4 G,2- G,^F,G,A, | B,2 z2 A,4 F,GF_E | %63
 DCB,A, A,D,_E,F, E,D,C,B,, | _E,2 D,2 E,8- | E,_E,F,G, F,E,D,C, D,C,B,,A,, | z2 D,2 G,8- | %67
 G,4- G,B,A,G, A,4- | A,4 D,8- | D,4 C,8- | C,2 C,2 B,,4 C,4 | C,12 |] %72
V:3
 F,,4 F,8- | F,12- | F,4- F,G,F,E, F,D,C,=B,, | C,8- C,D,C,B,, | A,,4 D,8 | G,,4 B,,4 G,,4 | %6
 C,4 E,4 C,4 | F,4 A,4 F,4 | B,2 A,2 B,8- | B,B,CD CB,A,G, A,G,F,E, | D,6 E,2 F,4- | F,4 z4 E,4- | %12
 E,4- E,G,F,E, D,C,B,,A,, | D,C,=B,,A,, B,,2 G,,2 C,2 _B,,2 | A,,2 G,,2 F,,2 D,,2 G,,4 | %15
 C,4 z4 z4 | z4 C,8- | C,12- | C,4 C,D,C,=B,, C,A,,G,,^F,, | G,,8- G,,A,,G,,F,, | E,,4 A,,8 | %21
 D,,4 F,,4 D,,4 | G,,4 =B,,4 G,,4 | C,4 E,4 C,4 | F,2 E,2 F,8- | F,F,G,A, G,F,E,D, E,D,C,B,, | %26
 x12 | x12 | x12 | z8 F,4- | F,4 z A,G,F, G,F,E,D, | A,2 A,,2- A,,2 z2 z4 | F,12 | E,8 z G,A,_B, | %34
 A,G,F,E, F,E,D,^C, D,=C,=B,,A,, | =B,,4- B,,C,D,E, D,C,B,,A,, | ^G,,12 | G,,8- G,,B,,A,,G,, | %38
 F,,4 G,,4 A,,4 | D,12- | D,D,E,F, G,2 F,2- F,E,D,C, | F,2 F,,2 F,8- | F,F,G,A, B,2 A,2- A,G,F,E, | %43
 A,2 A,,2 A,8- | A,A,=B,C D2 C2- CB,A,G, | C2 C,2 C8 | z EFG FEDC DC=B,A, | %47
 =B,A,^G,^F, G,D,E,=F, E,D,C,=B,, | C,12- | C,2 ^C,2 D,2 E,2 F,2 G,2 | F,12- | %51
 F,G,A,B, A,G,F,E, F,E,D,^C, | D,12- | D,D,E,F, E,D,C,=B,, C,B,,A,,^G,, | A,,F,,E,,^D,, E,,8 | %55
 A,,8- A,,B,,A,,G,, | F,,4 F,8- | F,12- | F,4- F,G,F,E, F,D,C,=B,, | C,8- C,D,C,B,, | A,,4 D,8 | %61
 G,,4 B,,4 D,4 | G,4 z8 | x12 | x12 | x12 | G,,6 A,,2 B,,4- | B,,4 z4 A,,4- | %68
 A,,4 A,,C,B,,A,, B,,A,,G,,F,, | G,,F,,E,,D,, E,,2 C,,2 F,,2 E,,2 | D,,4 z2 G,,2 C,2 C,,2 | %71
 !fermata!F,,12 |] %72
V:4
 x12 | z AGF G8- | G4 F4 F4- | F2 z2 z FED E4 | z4 z =E^FG F4- | FAG^F G3 G D=FED | E4 z DEF E4- | %7
 EGFE F3 F- F4- | F4 z cBA B4 | c8- c4 | z2[I:staff +1] A,2 D8- | D4- D[I:staff -1]FED E4- | %12
 E4 F8- | F4- FFED E4- | EEFG AGFE D4 | C4 z FED E4- | E4 z4 z4 | z EDC D8- | D4 C4 C4- | %19
 C2 z2 z C=B,A, B,4 | z4 z =B,^CD C4- | CED^C D3 D A,=C=B,A, | =B,4 z A,B,C B,4- | %23
 B,DC=B, C3 C- C4- | C4 z GFE F4 | G8- G4 | F2 z2 z cBA B4 | B8 c2 z2 | z4 z4 z[I:staff +1] FED | %29
[I:staff -1] z BAG A4- A4- | A2 A2 G2 B2 E2 F2- | FFED E8 | x12 | z FED E8- | E4 D8- | D12- | %36
 D4 z A,=B,C B,4 | A,4- A,=B,^CD E4- | E2 D2- D3 D ^C4 | D4- DED^C D4- | D4- DDEF G2 E2 | %41
 C4- CGFE F4- | F4- FFGA B2 G2 | E4- EBAG A4- | A4- AA=Bc d2 B2 | G4- Gdc=B c4- | c4 A8 | ^G12- | %48
 G z z2 z4 z4 | z GFE FEFG FED^C | D z z2 z4 z4 | x12 | x12 | z2 E2- [E^G]4- [EG]4- | %54
 [EG]2 ^F2 E4- E3 D- | DDEF ED^C=B, C4 | x12 | z AGF G8- | G4 F4 F4- | F2 z2 z FED E4 | %60
 z4 z =E^FG F4- | FAG^F G3 G- G4- | G z z2 c4- c4- | c4 B2 A2 B2 _A2- | AFG=A G8 | F8- F2 z2 | %66
 x12 | z DCB, C8- | C4 B,8- | B,4- B,B,A,G, A,4- | A,A,B,C DCB,A, z B,3 | B,B,A,G, !fermata!A,8 |] %72
V:5
 x12 | z4 z FED E4- | E4 C4 D4 | C2 z2 z8 | z CD_E D8- | D4 z8 | x12 | x12 | z4 z2 G2- GAGF | %9
 G8 F4 | x12 | z AGF G4- G4- | G4 z8 | x12 | z8 z F3- | FFGA G8 | x12 | z4 z C=B,A, B,4- | %18
 B,4 G,4 A,4 | x12 | z G,A,B, A,8- | A,4 z8 | x12 | x12 | z4 z2 D2- DEDC | D8 C4- | %26
 C2 z2 z4 z AGF | G8 F2 z2 | x12 |[I:staff +1] E4[I:staff -1] z GFE F4- | F2 z2 z8 | x12 | x12 | %33
 x12 | x12 | x12 | x12 | x12 | x12 | x12 | x12 | x12 | x12 | x12 | x12 | x12 | x12 | z4 E8- | %48
 E z z2 z4 z4 | x12 | x12 | x12 | x12 | x12 | z2 A2 A4 A^F ^G2 | z4 z2 z2 A,4 | x12 | %57
 z4 z FED E4- | E4 C4 D4 | C2 z2 z8 | z CD_E D8- | D8 D4- | D z z2 z2 z B A4- | A4 F8- | %64
 F z z2 z F_ED E[I:staff +1]DCB, |[I:staff -1] C8 B,2 z2 | x12 | x12 | x12 | x12 | z8 G,4 | %71
[I:staff +1] F,4 F,[I:staff -1]G,[I:staff +1]F,E, !fermata!F,4 |] %72
V:6
 x12 | x12 | x12 | x12 | x12 | x12 | x12 | x12 | x12 | x12 | x12 | x12 | x12 | x12 | x12 | x12 | %16
 x12 | x12 | x12 | x12 | x12 | x12 | x12 | x12 | x12 | x12 | x12 | x12 | x12 | x12 | x12 | x12 | %32
 x12 | x12 | x12 | x12 | x12 | x12 | x12 | x12 | x12 | x12 | x12 | x12 | x12 | x12 | x12 | x12 | %48
 x12 | x12 | x12 | x12 | x12 | x12 | x12 | x12 | x12 | x12 | x12 | x12 | x12 | x12 | x12 | x12 | %64
 x12 | x12 | x12 | z8 z E,F,G, | F,E,D,C, z8 | x12 | x12 | x12 |] %72

